X: 21953
T: Kitty In The Lane
R: reel
M: 4/4
K: Dmixolydian
d^cAB =c2BA|GEED cBce|d^cAB =cdBd|cAGC EDDe|
~d2AB ~c2BA|GEED cBce|d2AB cdBd|cAGC EDD2:|
Adde fded|cBca gcec|Ad^cd edcd|eaag edd^c|
Adde =f2ed|cABd efge|(3(agf) (3(gfe) cded|cAGC EDD2:|

